SF_Symbols/person.crop.rectangle.stack.fill.svg

<?xml version="1.0" encoding="UTF-8"?>
<svg xmlns="http://www.w3.org/2000/svg" xmlns:xlink="http://www.w3.org/1999/xlink" width="24" height="24" viewBox="0 0 24 24" version="1.1">
<g id="surface1">
<path style=" stroke:none;fill-rule:nonzero;fill:rgb(100%,100%,100%);fill-opacity:1;" d="M 4.457031 23.800781 L 19.53125 23.800781 C 20.578125 23.800781 21.367188 23.539062 21.894531 23.011719 C 22.429688 22.484375 22.699219 21.703125 22.699219 20.667969 L 22.699219 10.1875 C 22.699219 9.152344 22.429688 8.375 21.894531 7.855469 C 21.367188 7.328125 20.578125 7.0625 19.53125 7.0625 L 4.457031 7.0625 C 3.402344 7.0625 2.609375 7.328125 2.082031 7.855469 C 1.554688 8.375 1.292969 9.152344 1.292969 10.1875 L 1.292969 20.667969 C 1.292969 21.707031 1.554688 22.488281 2.082031 23.011719 C 2.609375 23.539062 3.402344 23.800781 4.457031 23.800781 Z M 3.28125 5.386719 L 20.71875 5.386719 C 20.636719 4.914062 20.46875 4.550781 20.21875 4.300781 C 19.976562 4.046875 19.59375 3.917969 19.074219 3.917969 L 4.925781 3.917969 C 4.40625 3.917969 4.019531 4.046875 3.769531 4.300781 C 3.519531 4.550781 3.359375 4.914062 3.28125 5.386719 Z M 5.425781 2.5 L 18.574219 2.5 C 18.539062 2.054688 18.394531 1.722656 18.144531 1.5 C 17.894531 1.269531 17.527344 1.15625 17.042969 1.15625 L 6.949219 1.15625 C 6.46875 1.15625 6.101562 1.269531 5.84375 1.5 C 5.59375 1.722656 5.453125 2.054688 5.425781 2.5 Z M 5.96875 22.105469 C 6.175781 21.570312 6.472656 21.078125 6.855469 20.625 C 7.242188 20.179688 7.703125 19.796875 8.230469 19.480469 C 8.757812 19.152344 9.339844 18.898438 9.980469 18.71875 C 10.617188 18.539062 11.292969 18.449219 12 18.449219 C 12.714844 18.449219 13.390625 18.539062 14.019531 18.71875 C 14.660156 18.898438 15.242188 19.152344 15.769531 19.480469 C 16.296875 19.796875 16.753906 20.179688 17.136719 20.625 C 17.523438 21.078125 17.824219 21.570312 18.03125 22.105469 Z M 12 16.925781 C 11.421875 16.925781 10.898438 16.777344 10.425781 16.480469 C 9.953125 16.179688 9.578125 15.777344 9.300781 15.269531 C 9.03125 14.757812 8.890625 14.171875 8.886719 13.519531 C 8.886719 12.917969 9.019531 12.359375 9.292969 11.855469 C 9.570312 11.339844 9.945312 10.933594 10.417969 10.636719 C 10.894531 10.335938 11.421875 10.1875 12 10.1875 C 12.578125 10.1875 13.101562 10.335938 13.574219 10.636719 C 14.046875 10.933594 14.421875 11.339844 14.699219 11.855469 C 14.976562 12.359375 15.113281 12.917969 15.113281 13.519531 C 15.113281 14.171875 14.976562 14.757812 14.699219 15.269531 C 14.421875 15.785156 14.046875 16.191406 13.574219 16.488281 C 13.101562 16.789062 12.578125 16.933594 12 16.925781 Z M 12 16.925781 "/>
</g>
</svg>

<svg xmlns="http://www.w3.org/2000/svg" width="24" height="24"><path style="stroke:none;fill-rule:nonzero;fill:#fff;fill-opacity:1" d="M4.457 23.8h15.074c1.047 0 1.836-.26 2.364-.788.535-.528.804-1.309.804-2.344v-10.48c0-1.036-.27-1.813-.804-2.333-.528-.527-1.317-.793-2.364-.793H4.457c-1.055 0-1.848.266-2.375.793-.527.52-.789 1.297-.789 2.332v10.481c0 1.039.262 1.82.789 2.344.527.527 1.32.789 2.375.789ZM3.281 5.388H20.72c-.082-.473-.25-.836-.5-1.086-.242-.254-.625-.383-1.145-.383H4.926c-.52 0-.906.129-1.156.383-.25.25-.41.613-.489 1.086ZM5.426 2.5h13.148c-.035-.445-.18-.777-.43-1-.25-.23-.617-.344-1.101-.344H6.949c-.48 0-.847.114-1.105.344-.25.223-.39.555-.418 1Zm.543 19.605c.21-.539.511-1.039.886-1.48.395-.453.86-.84 1.375-1.145a6.647 6.647 0 0 1 1.75-.761 7.339 7.339 0 0 1 2.02-.27c.715 0 1.39.09 2.02.27.64.18 1.222.433 1.75.761.527.317.984.7 1.367 1.145.386.453.687.945.894 1.48ZM12 16.925a2.92 2.92 0 0 1-1.574-.445c-.473-.3-.86-.718-1.125-1.21-.27-.512-.41-1.098-.414-1.75 0-.602.133-1.16.406-1.665.262-.5.648-.918 1.125-1.218.477-.301 1.004-.45 1.582-.45.578 0 1.102.149 1.574.45.473.297.848.703 1.125 1.218.278.504.414 1.063.414 1.665 0 .652-.136 1.238-.414 1.75-.261.5-.652.918-1.125 1.218-.472.301-.996.446-1.574.438Zm0 0"/></svg>
